X: 21622
T: Killavil Postman, The
R: barndance
M: 4/4
K: Dmajor
(3EFG|A2 d2 d2- d>B|A>BA>F E>^DE>F|D2 D2- D2 E2|(3FGF F>G F>D (3EFG|
A2 d>c d2 d>B|A2 A>F E>^D (3=DEF|e>^d e2- e2 f2|B4- B>A (3EFG|
A2 d2 d>ed>B|A>BA>F E>^DE>F|D2 D2- D2 E2|F4- F2 A2|
B2 B2 G>F E2|A>^GA>B F>ED>[B,B]|[A,2A] D2- D2 E2|D4- D2||
d>e|f2 f2 d>c B2|f>^e f2 d>c B2|f2 f2- f2 g2|f4- f2 d2|
e2 e2 c>B A2|e>^de>f c>BA>c|e2 e2- e2 f2|B4- B2 d>e|
f2 f2 d>cB>d|f2 f2 d>c B2|f2 f2- f2 g2|f4- f2 d>e|
f2 f2 e2 e2|d2 d2 c4|c>de>d c>d (3fed|(3cdc (3BcB A>G||

